X: 27
T: Lady Townsend's Fette de Camp
%R: reel
B: Stewart "A Select Collection of Airs, Jigs, Marches and Reels", ca.1784, p.13 #27
F: http://imslp.org/wiki/A_Select_Collection_of_Airs,_Jigs,_Marches_and_Reels_%28Various%29
Z: 2017 John Chambers <jc:trillian.mit.edu>
M: 2/4
L: 1/16
K: G
|:\
BdBG cecA | fafd g2G2 |\
BdBG cecA | (BA).G.F G4 ::\
d3ge2g2 | fgaf g2G2 |
d2g2e2g2 | (fg).a.f g4 ::\
BABc d2e2 | f2g2f2e2 |\
BgdB cdec | (BA).G.F G4 :|
